X:167
T:Isle of Skie. Ru2.167, The
%%VWML:RutherfordVol2-2249-p84-0
F:http://www.vwml.org/record/RutherfordVol2/2249/p84
Z:vmp.Ruairidh Greig 2015 www.village-music-project.org.uk
M:C|
L:1/8
Q:1/4=120
K:Bb
B|BFDF BFDF|ECCB cGGA|BFDF BFDF|ECCF DB,B,:|
|:f|fcfb fdBd|"tr"(c>Bc)d cGGf|fcfb fdBd|"tr"(c>Bc)dB2B:|
W:The first & 2d. Cu. foot it & Change Sides .|
W:The same back again cross over &half
W:Figure .|. Right & Left at Top. :|
T:Three Milk Maids of Blantyre. Ru2.168
B:RUTHERFORD Complete Collection of 200 Country Dances Vol.2; 1759.
Z:vmp.Ruairidh Greig 2015 www.village-music-project.org.uk
M:C
L:1/8
Q:1/4=120
K:G
B|G/G/G BG cGBG|AD D/D/D FGAF|G/G/G BG cGBG|Agdg BGG:|
|:g|dgBg A/A/Ag2|dgBg dgBg|(a/g/f/e/) gB A/A/Ag2|egdg BG G:|
W:The first Cu. casts off one Cu. Right Hands
W:across with the Third Cu. .| Cast up again
W:& Left Hands across with the 2d. Cu. :|
W:Gallop down one Cu. up again foot it &
W:Cast off .|. Lead thro the Third Cus. cast up
W:into the 2d. Cus. Placfe & turn your Partner. :|
